svgs/sharp-regular/window-frame-open.svg

<svg xmlns="http://www.w3.org/2000/svg" viewBox="0 0 512 512"><!--! Font Awesome Pro 6.6.0 by @fontawesome - https://fontawesome.com License - https://fontawesome.com/license (Commercial License) Copyright 2024 Fonticons, Inc. --><path d="M432 240l-152 0 0-192 152 0 0 192zm-200 0L80 240 80 48l152 0 0 192zM32 0l0 48 0 192 0 48 48 0 352 0 48 0 0-48 0-192 0-48L432 0 80 0 32 0zM24 464L0 464l0 48 24 0 32 0 400 0 32 0 24 0 0-48-24 0-8 0 0-144-48 0 0 144L80 464l0-144-48 0 0 144-8 0z"/></svg>

<svg xmlns="http://www.w3.org/2000/svg" viewBox="0 0 512 512"><!--! Font Awesome Pro 6.4.2 by @fontawesome - https://fontawesome.com License - https://fontawesome.com/license (Commercial License) Copyright 2023 Fonticons, Inc. --><path d="M432 240H280V48H432V240zm-200 0H80V48H232V240zM32 0V48 240v48H80 432h48V240 48 0H432 80 32zM24 464H0v48H24 56 456h32 24V464H488h-8V320H432V464H80V320H32V464H24z"/></svg>
